src/images_karasa_jaga_svg/cmd/sc_connectorcurvearrowstart.svg

<svg height="16" width="16" xmlns="http://www.w3.org/2000/svg" xmlns:xlink="http://www.w3.org/1999/xlink"><linearGradient id="a" gradientTransform="matrix(-8.4305758 0 0 8.430571 724.32726 -74.779133)" gradientUnits="userSpaceOnUse" x1="71.994354" x2="73.261963" y1="24.686638" y2="18.982378"><stop offset="0" stop-color="#0968ef"/><stop offset="1" stop-color="#aecffc"/></linearGradient><g transform="scale(.125)"><g fill="#4d4d4d"><path d="m32.009764 64c-6.186415 0-15.546615 3.41567-18.892578 7.876953-3.345963 4.461284-5.097656 6.080939-5.097656 12.123047v4c0 6.042108 1.761459 11.661763 5.107422 16.12305 3.345963 4.46128 12.706163 7.87695 18.892578 7.87695l-.01953-8h.01953c-6.648 0-16-7.136-16-16v-4c0-8.864 9.342234-12 15.990234-12z" fill-opacity=".992157" opacity=".99"/><path d="m16 16h80v8h-80z" opacity=".99"/><path d="m95.996108 64.000005-64.02937.000349.0235 7.999651 64.02937-.00035z" opacity=".99"/><path d="m32 104h72v8h-72z" opacity=".99"/><g fill-opacity=".992157"><path d="m96 16v8c6.648 0 16 7.136 16 16v4c0 8.859623-9.35657 19.992957-16 20l.01953 7.998047c6.17392-.01086 15.52265-3.420826 18.86328-7.875 3.34596-4.461284 5.11719-14.080939 5.11719-20.123047v-4c0-6.042108-1.76146-11.661763-5.10742-16.123047-3.34596-4.461283-12.70617-7.876953-18.89258-7.876953z" opacity=".99"/><path d="m0 20 33-20-8 20 8 20z" fill-rule="evenodd"/></g></g><path d="m128 96.000006h-32.00003v31.999994h32.00003z" fill="url(#a)" stroke-width="8.430573"/></g></svg>

<?xml version="1.0" encoding="UTF-8" standalone="no"?>
<!-- Created with Inkscape (http://www.inkscape.org/) -->

<svg
   xmlns:dc="http://purl.org/dc/elements/1.1/"
   xmlns:cc="http://creativecommons.org/ns#"
   xmlns:rdf="http://www.w3.org/1999/02/22-rdf-syntax-ns#"
   xmlns:svg="http://www.w3.org/2000/svg"
   xmlns="http://www.w3.org/2000/svg"
   xmlns:xlink="http://www.w3.org/1999/xlink"
   xmlns:sodipodi="http://sodipodi.sourceforge.net/DTD/sodipodi-0.dtd"
   xmlns:inkscape="http://www.inkscape.org/namespaces/inkscape"
   width="128"
   height="128"
   id="svg3408"
   sodipodi:version="0.32"
   inkscape:version="0.92.2 (unknown)"
   version="1.0"
   sodipodi:docname="sc_connectorcurvearrowstart.svg"
   inkscape:output_extension="org.inkscape.output.svgz.inkscape"
   inkscape:export-filename="/home/rizmut/Dokumen/Rizmut/Github/libreoffice-style-karasa-jaga/build/images_karasa_jaga/cmd/sc_connectorcurvearrowstart.png"
   inkscape:export-xdpi="12"
   inkscape:export-ydpi="12">
  <defs
     id="defs3410">
    <linearGradient
       id="linearGradient6330">
      <stop
         id="stop6332"
         offset="0"
         style="stop-color:#0968ef;stop-opacity:1;" />
      <stop
         id="stop6334"
         offset="1"
         style="stop-color:#aecffc;stop-opacity:1;" />
    </linearGradient>
    <linearGradient
       inkscape:collect="always"
       xlink:href="#linearGradient6330"
       id="linearGradient8880"
       gradientUnits="userSpaceOnUse"
       x1="72.631729"
       y1="24.052835"
       x2="72.631729"
       y2="20.257126" />
    <linearGradient
       inkscape:collect="always"
       xlink:href="#linearGradient6330"
       id="linearGradient8878"
       gradientUnits="userSpaceOnUse"
       x1="71.994354"
       y1="24.686638"
       x2="73.261963"
       y2="18.982378" />
  </defs>
  <sodipodi:namedview
     id="base"
     pagecolor="#ffffff"
     bordercolor="#666666"
     borderopacity="1.0"
     inkscape:pageopacity="0.0"
     inkscape:pageshadow="2"
     inkscape:zoom="1.4142137"
     inkscape:cx="-98.450217"
     inkscape:cy="115.75858"
     inkscape:document-units="px"
     inkscape:current-layer="layer1"
     height="128px"
     width="128px"
     showborder="true"
     inkscape:showpageshadow="false"
     showgrid="true"
     inkscape:window-width="1366"
     inkscape:window-height="706"
     inkscape:window-x="0"
     inkscape:window-y="0"
     showguides="true"
     inkscape:guide-bbox="true"
     inkscape:window-maximized="1">
    <inkscape:grid
       id="GridFromPre046Settings"
       type="xygrid"
       originx="0"
       originy="0"
       spacingx="4"
       spacingy="4"
       color="#0000ff"
       empcolor="#0000ff"
       opacity="0.2"
       empopacity="0.4"
       empspacing="2" />
  </sodipodi:namedview>
  <metadata
     id="metadata3413">
    <rdf:RDF>
      <cc:Work
         rdf:about="">
        <dc:format>image/svg+xml</dc:format>
        <dc:type
           rdf:resource="http://purl.org/dc/dcmitype/StillImage" />
        <dc:title />
      </cc:Work>
    </rdf:RDF>
  </metadata>
  <g
     inkscape:label="Livello 1"
     inkscape:groupmode="layer"
     id="layer1">
    <path
       style="opacity:0.98999999;fill:#4d4d4d;fill-opacity:0.99215686;stroke:none;stroke-width:6;stroke-linecap:square;stroke-linejoin:round;stroke-miterlimit:4;stroke-dasharray:none;stroke-dashoffset:0;stroke-opacity:1"
       d="M 32.009764,64 C 25.823349,64 16.463149,67.41567 13.117186,71.876953 9.771223,76.338237 8.01953,77.957892 8.01953,84 v 4 c 0,6.042108 1.761459,11.661763 5.107422,16.12305 C 16.472915,108.58433 25.833115,112 32.01953,112 L 32,104 h 0.01953 c -6.648,0 -16,-7.136 -16,-16 v -4 c 0,-8.864 9.342234,-12 15.990234,-12 z"
       id="rect24101"
       inkscape:connector-curvature="0"
       sodipodi:nodetypes="csssscccsscc" />
    <rect
       y="16"
       x="16"
       height="8"
       width="80"
       id="rect858-6"
       style="opacity:0.98999999;fill:#4d4d4d;fill-opacity:1;stroke:none;stroke-width:4.59503746;stroke-linecap:square;stroke-linejoin:round;stroke-miterlimit:4;stroke-dasharray:none;stroke-dashoffset:0;stroke-opacity:1" />
    <path
       style="opacity:0.98999999;fill:#4d4d4d;fill-opacity:1;stroke:none;stroke-width:5.42421007;stroke-linecap:square;stroke-linejoin:round;stroke-miterlimit:4;stroke-dasharray:none;stroke-dashoffset:0;stroke-opacity:1"
       d="m 95.996108,64.000005 -64.02937,3.49e-4 0.0235,7.999651 64.02937,-3.5e-4 z"
       id="rect858"
       inkscape:connector-curvature="0"
       sodipodi:nodetypes="ccccc" />
    <rect
       style="opacity:0.98999999;fill:#4d4d4d;fill-opacity:1;stroke:none;stroke-width:4.31052732;stroke-linecap:square;stroke-linejoin:round;stroke-miterlimit:4;stroke-dasharray:none;stroke-dashoffset:0;stroke-opacity:1"
       id="rect17684"
       width="72"
       height="8"
       x="32"
       y="104" />
    <path
       id="path24112"
       d="m 96,16 v 8 c 6.648,0 16,7.136 16,16 v 4 c 0,8.859623 -9.35657,19.992957 -16,20 l 0.01953,7.998047 c 6.17392,-0.01086 15.52265,-3.420826 18.86328,-7.875 C 118.22877,59.661763 120,50.042108 120,44 V 40 C 120,33.957892 118.23854,28.338237 114.89258,23.876953 111.54662,19.41567 102.18641,16 96,16 Z"
       style="opacity:0.98999999;fill:#4d4d4d;fill-opacity:0.99215686;stroke:none;stroke-width:6;stroke-linecap:square;stroke-linejoin:round;stroke-miterlimit:4;stroke-dasharray:none;stroke-dashoffset:0;stroke-opacity:1"
       inkscape:connector-curvature="0"
       sodipodi:nodetypes="ccssccssssc" />
    <path
       style="fill:#4d4d4d;fill-opacity:0.99215686;fill-rule:evenodd;stroke:none;stroke-width:1.25px;stroke-linecap:butt;stroke-linejoin:miter;stroke-opacity:1"
       d="M 0,20 33,0 25,20 33,40 Z"
       id="path860"
       inkscape:connector-curvature="0"
       sodipodi:nodetypes="ccccc" />
    <g
       transform="matrix(-8.4305758,0,0,8.430571,724.32726,-78.779131)"
       id="g8876"
       style="fill:url(#linearGradient8880);fill-opacity:1">
      <rect
         style="fill:url(#linearGradient8878);fill-opacity:1"
         id="rect8874"
         height="3.7957091"
         width="3.795711"
         y="20.257126"
         x="70.733871" />
    </g>
  </g>
</svg>
